X: 115
T: Pollonesse #115
M: 3/4
L: 1/16
R: Pollonesse
K: C
Q: 110
e6 (fe) dfdB|c2(ec) G2G4 AB|c2ec g2(ec) g2(ec)|^cded =cBAG ^FGBd|
e2 e4 fe (dfdB)|c2(ec) G2 G4AB|c2(ec) g2(ec) c'2af|(eg)(Bd) [dF]4 [cE]4|
e6 (fe) dfdB|c2(ec) G2G4 AB|c2ec g2(ec) g2(ec)|^cded =cBAG ^FGBd|
e2 e4 fe (dfdB)|c2(ec) G2 G4AB|c2(ec) g2(ec) c'2af|(eg)(Bd) [dF]4 [cE]4|
G2b4 ab c'bag| ^fgaf c2Bc dcBc|B2f4gf fedc|g4 g^fge d2c2*|
|G2b4 ab c'bag| ^fgaf c2Bc dcBc|B2f4gf fedc|g4 g^fge d^cd^d|
e6 (fe) dfdB|c2(ec) G2G4 AB|c2ec g2(ec) g2(ec)|^cded =cBAG ^FGBd|
e2 e4 fe (dfdB)|c2(ec) G2 G4AB|c2(ec) g2(ec) c'2af|(eg)(Bd) [dF]4 [cE]4:|
|:[K:Eb]G2c=B c2d2 fedc|^cd=BG cdBG cdBG|G2c=B c2d2 fedc|d2g=f f4g4:|
|:g2g4dc gfdB|c2c4 (ec) ^cd=BG|g2g4(ec) (gf)dB|1ced=B B4c2c2:|2ced=B Bc^cd ^d4|]
|:[K:C] e6 (fe) dfdB|c2(ec) G2G4 AB|c2ec g2(ec) g2(ec)|^cded =cBAG ^FGBd|
e2 e4 fe (dfdB)|c2(ec) G2 G4AB|c2(ec) g2(ec) c'2af|(eg)(Bd) [dF]4 [cE]4:|
|:[K:F] c2B2 A2f2 c2A2|BcBA G2z2 z2E2|F2A4c4f2|G4G4z4|c3B A2ag fedc|
cBAB G2c'b agfe|(fage) fcdB AcBA|G4F2c4F2:|
TODO...

